X: 001
T: the Languer of Love.
T: Tha' mi tinn leis a Ghoal.
R: air
N: This is version 1, for ABC software that doesn't understand voice overlays or diminuendo symbolx.
B: Simon Fraser's "Airs and Melodies Peculiar to the Highlands of Scotland and the Isles" p.11 #1
Z: 2022 John Chambers <jc:trillian.mit.edu>
M: C
L: 1/8
Q: "Slow & Tender"
K: D
% = = = = = = = = = =
% Voice 1 reformatted for _ _-bar lines, for compactness and proofreading.
V: 1 staves=2
[|\
D2F[AD] [d4F4] | !p!(c2"^cres."d2) [B4G4] | A2(Bc) d3e | "_>"d3c ("_>"B2A)z |\
!f!~F3G A2g2 | {d}f3e Hd2 zD | !p!~F3G {FG}A3F | "_dim. . ."(G2F2) (E2D2) |
!p!D2FA d4 | (c2d2) [B4G4] | A2(Bc) d3e | "_>"d3c ("_>"B2A)z |\
!f!~F3G A2g2 | {d}f3e Hd2 zD | !p!~F3G {FG}A3F | ">dim. . ."(G2F2) (E2D2) |]
[|\
!p!{d}f3"_cres."e d3f | (c2d2) [B4G4] | {d}f3e d3f | "_>"d3c ("_>"B2A)z |\
~F3G A2(ag) | f3e Hd2 zD | ~F3(G {FG}A3)F | "_dim. . ."(G2F2) (E2D2) |
!f!{g}f3e d3f | (c2d2) [B4G4] | f3e d4 | c2(c3/d//e//) d2Dz |\
!p!~F3G A2g2 | "_retard."((3.f.g.a (3.g.f.e) Hd4 | {DEFGABc}!f!d3B A3F | "_dim. . ."(G2F2) (E2D2) |] 
% = = = = = = = = = =
% Voice 2 preserves the staff layout in the book.
V: 2 clef=bass middle=d
[|\
d3c B3b | !p!(a2"_cres."f2) g2G2 | f3e d2g2 | "^>"f2a2 "^>"[g2d2]fz |\
!f! D2de f2e2 | e2A2 HB2z2 | !p!a2g2 f2d2 | "_dim. . ."gba2 A2d2 |
!p!d3c B2b2 | a2f2 g2G2 | f2ge d2g2 | "_>"f2a2 "_>"[g2d2]fz |\
!f!D2de f2e2 | d2A2 HB2z2 | !p!a2g2 f2d2 | "dim. . ."b2a2 g2f2 |]
[|\
!p!d2"^cres."e2 f2d2 | e2f2 g2G2 | c'2c'2 b2z2 | "^>"[b2d2-][a2d2] "^>"g2fz |\
d2e2 f2c2 | d2A2 HB2z2 | a2g2 f2e2 | "_dim. . ."bga2 A2d2 |
!f!d'2c'2 b2z2 | a2f2 g2G2 | d'2c'2 b2B2 | a2A2 d2z2 |\
!p!d'2c'b a2c2 | "^retard."d2A2 HB4 | !f!f2g2 f2a2 | "dim. . ."b2a2 g2f2 :|
